Papirus/64x64/apps/bridge-constructor-portal.svg

<?xml version="1.0" encoding="UTF-8" standalone="no"?>
<svg
   id="_图层_1"
   version="1.1"
   viewBox="0 0 64 64" width="64" height="64"
   sodipodi:docname="bridge-constructor-portal.svg"
   xml:space="preserve"
   inkscape:version="1.4 (e7c3feb100, 2024-10-09)"
   xmlns:inkscape="http://www.inkscape.org/namespaces/inkscape"
   xmlns:sodipodi="http://sodipodi.sourceforge.net/DTD/sodipodi-0.dtd"
   xmlns="http://www.w3.org/2000/svg"
   xmlns:svg="http://www.w3.org/2000/svg"><sodipodi:namedview
     id="namedview26"
     pagecolor="#505050"
     bordercolor="#eeeeee"
     borderopacity="1"
     inkscape:showpageshadow="0"
     inkscape:pageopacity="0"
     inkscape:pagecheckerboard="0"
     inkscape:deskcolor="#505050"
     inkscape:zoom="10.6875"
     inkscape:cx="32"
     inkscape:cy="28.912281"
     inkscape:window-width="1920"
     inkscape:window-height="939"
     inkscape:window-x="0"
     inkscape:window-y="34"
     inkscape:window-maximized="1"
     inkscape:current-layer="_图层_1" /><!-- Generator: Adobe Illustrator 29.0.1, SVG Export Plug-In . SVG Version: 2.1.0 Build 192)  --><defs
     id="defs6"><style
       id="style1">
      .st0 {
        fill-opacity: .5;
      }

      .st0, .st1, .st2, .st3, .st4, .st5, .st6, .st7 {
        fill: #fff;
      }

      .st8 {
        fill: #133c9a;
      }

      .st2, .st9 {
        display: none;
      }

      .st3 {
        fill-opacity: .2;
      }

      .st4 {
        fill-opacity: .9;
      }

      .st10 {
        fill: #3370ff;
      }

      .st11 {
        fill: url(#_未命名的渐变_3);
      }

      .st12 {
        fill: url(#_未命名的渐变);
      }

      .st5 {
        fill-opacity: .3;
      }

      .st6 {
        fill-opacity: 0;
      }

      .st7 {
        fill-opacity: .7;
      }

      .st13 {
        fill: #00d6b9;
      }

      .st14 {
        fill: url(#_未命名的渐变_2);
      }
    </style><radialGradient
       id="_未命名的渐变"
       data-name="未命名的渐变"
       cx="123.9"
       cy="-40.2"
       fx="123.9"
       fy="-40.2"
       r="59.4"
       gradientTransform="translate(-26.8 25.5) scale(.6 -.7)"
       gradientUnits="userSpaceOnUse"><stop
         offset="0"
         stop-color="#db202e"
         id="stop1" /><stop
         offset="1"
         stop-color="#e01b24"
         id="stop2" /></radialGradient><radialGradient
       id="_未命名的渐变_2"
       data-name="未命名的渐变 2"
       cx="67.6"
       cy="26.8"
       fx="67.6"
       fy="26.8"
       r="105.2"
       gradientTransform="translate(-26.6 25.3) scale(.6 -.7)"
       gradientUnits="userSpaceOnUse"><stop
         offset="0"
         stop-color="#ffb648"
         id="stop3" /><stop
         offset="1"
         stop-color="#ff7800"
         stop-opacity="0"
         id="stop4" /></radialGradient><radialGradient
       id="_未命名的渐变_3"
       data-name="未命名的渐变 3"
       cx="61.7"
       cy="18.6"
       fx="61.7"
       fy="18.6"
       r="68"
       gradientTransform="translate(-26.8 25.8) scale(.6 -.7)"
       gradientUnits="userSpaceOnUse"><stop
         offset="0"
         stop-color="#c64600"
         id="stop5" /><stop
         offset="1"
         stop-color="#a51d2d"
         id="stop6" /></radialGradient><style
       id="style1-2">
      .st0, .st1, .st2, .st3, .st4, .st5 {
        isolation: isolate;
      }

      .st0, .st1, .st6, .st7, .st5, .st8 {
        display: none;
      }

      .st0, .st3, .st4, .st5 {
        opacity: .2;
      }

      .st1 {
        opacity: .1;
      }

      .st1, .st9, .st2, .st4, .st5 {
        fill: #fff;
      }

      .st10 {
        fill: #3f3f3f;
      }

      .st2 {
        opacity: .3;
      }

      .st6 {
        fill: #505d6e;
      }

      .st11, .st8 {
        fill: #ffcca3;
      }

      .st12 {
        fill: #fed24c;
      }

      .st13 {
        fill: #c2352a;
      }
    </style></defs><path
     class="st1"
     d="M 47.5,64.1 H 13.8 C 6.2,64.1 0,57.8 0,50.3 V 13.7 C 0,6.2 6.2,0 13.7,0 H 50.3 C 57.8,0 64,6.2 64,13.7 V 50.3 C 64,57.8 57.8,64 50.3,64 h -2.9 0.1 z"
     id="path6"
     style="display:inline;opacity:1;fill:#424242;fill-opacity:1" /><g
     id="g27"
     transform="translate(-0.37426901,-0.50584795)"><rect
       style="opacity:0.2"
       width="11"
       height="50"
       x="49"
       y="8"
       rx="2.75"
       ry="2.7780001"
       id="rect1" /><rect
       style="opacity:0.2"
       width="11"
       height="50"
       x="4"
       y="8"
       rx="2.75"
       ry="2.7780001"
       id="rect2" /><path
       style="fill:#8e8e8e"
       d="m 9.4999999,12 c -1.3849999,0 -2.5,0.99111 -2.5,2.222223 V 49.777777 C 6.9999999,51.00889 8.115,52 9.4999999,52 H 50.749999 C 52.135,52 53.25,51.00889 53.25,49.777777 V 14.222223 C 53.25,12.99111 52.135,12 50.749999,12 Z M 49.5,12 C 48.115,12 47,12.99111 47,14.222223 V 49.777777 C 47,51.00889 48.115,52 49.5,52 h 4.999999 C 55.884999,52 57,51.00889 57,49.777777 V 14.222223 C 57,12.99111 55.884999,12 54.499999,12 Z"
       id="path2" /><rect
       style="fill:#ff9205"
       width="11"
       height="50"
       x="4"
       y="7"
       rx="2.75"
       ry="2.7780001"
       id="rect3" /><rect
       style="fill:#00c1ee"
       width="11"
       height="50"
       x="49"
       y="7"
       rx="2.75"
       ry="2.7780001"
       id="rect4" /><path
       style="fill:none;stroke:#3f3f3f;stroke-width:6;stroke-linecap:round;stroke-linejoin:round"
       d="m 32.000007,21 v 21 m 0,-21 L 15,42 h 34 z"
       id="path4" /><path
       style="opacity:0.2"
       d="m 32,16 a 5.9999999,5.9999999 0 0 0 -6,6 5.9999999,5.9999999 0 0 0 6,6 5.9999999,5.9999999 0 0 0 6,-6 5.9999999,5.9999999 0 0 0 -6,-6 z M 15,37 a 5.9999999,5.9999999 0 0 0 -6,6 5.9999999,5.9999999 0 0 0 6,6 5.9999999,5.9999999 0 0 0 6,-6 5.9999999,5.9999999 0 0 0 -6,-6 z m 17,0 a 5.9999999,5.9999999 0 0 0 -6,6 5.9999999,5.9999999 0 0 0 6,6 5.9999999,5.9999999 0 0 0 6,-6 5.9999999,5.9999999 0 0 0 -6,-6 z m 17,0 a 5.9999999,5.9999999 0 0 0 -6,6 5.9999999,5.9999999 0 0 0 6,6 5.9999999,5.9999999 0 0 0 6,-6 5.9999999,5.9999999 0 0 0 -6,-6 z"
       id="path5" /><path
       style="fill:#ffffff"
       d="m 32,15 a 5.9999999,5.9999999 0 0 0 -6,6 5.9999999,5.9999999 0 0 0 6,6 5.9999999,5.9999999 0 0 0 6,-6 5.9999999,5.9999999 0 0 0 -6,-6 z M 15,36 a 5.9999999,5.9999999 0 0 0 -6,6 5.9999999,5.9999999 0 0 0 6,6 5.9999999,5.9999999 0 0 0 6,-6 5.9999999,5.9999999 0 0 0 -6,-6 z m 17,0 a 5.9999999,5.9999999 0 0 0 -6,6 5.9999999,5.9999999 0 0 0 6,6 5.9999999,5.9999999 0 0 0 6,-6 5.9999999,5.9999999 0 0 0 -6,-6 z m 17,0 a 5.9999999,5.9999999 0 0 0 -6,6 5.9999999,5.9999999 0 0 0 6,6 5.9999999,5.9999999 0 0 0 6,-6 5.9999999,5.9999999 0 0 0 -6,-6 z"
       id="path6-0" /><path
       style="opacity:0.1;fill:#ffffff"
       d="M 6.75,7 C 5.2265,7 4,8.2384548 4,9.7773438 V 10.777344 C 4,9.2384548 5.2265,8 6.75,8 h 5.5 C 13.7735,8 15,9.2384548 15,10.777344 V 9.7773438 C 15,8.2384548 13.7735,7 12.25,7 Z"
       id="path7" /><path
       style="opacity:0.1;fill:#ffffff"
       d="M 51.75,7 C 50.2265,7 49,8.2384548 49,9.7773438 V 10.777344 C 49,9.2384548 50.2265,8 51.75,8 h 5.5 C 58.7735,8 60,9.2384548 60,10.777344 V 9.7773438 C 60,8.2384548 58.7735,7 57.25,7 Z"
       id="path8" /></g></svg>

<svg xmlns="http://www.w3.org/2000/svg" width="64" height="64" version="1">
 <rect style="opacity:0.2" width="11" height="50" x="49" y="8" rx="2.75" ry="2.778"/>
 <rect style="opacity:0.2" width="11" height="50" x="4" y="8" rx="2.75" ry="2.778"/>
 <path style="fill:#8e8e8e" d="m 9.4999999,12 c -1.3849999,0 -2.5,0.99111 -2.5,2.222223 l 0,35.555554 C 6.9999999,51.00889 8.115,52 9.4999999,52 L 50.749999,52 C 52.135,52 53.25,51.00889 53.25,49.777777 l 0,-35.555554 C 53.25,12.99111 52.135,12 50.749999,12 Z M 49.5,12 C 48.115,12 47,12.99111 47,14.222223 l 0,35.555554 C 47,51.00889 48.115,52 49.5,52 l 4.999999,0 C 55.884999,52 57,51.00889 57,49.777777 L 57,14.222223 C 57,12.99111 55.884999,12 54.499999,12 Z"/>
 <rect style="fill:#ff9205" width="11" height="50" x="4" y="7" rx="2.75" ry="2.778"/>
 <rect style="fill:#00c1ee" width="11" height="50" x="49" y="7" rx="2.75" ry="2.778"/>
 <path style="fill:none;stroke:#3f3f3f;stroke-width:6;stroke-linecap:round;stroke-linejoin:round" d="m 32.000007,21 0,21 m 0,-21 L 15,42 49,42 Z"/>
 <path style="opacity:0.2" d="m 32,16 a 5.9999999,5.9999999 0 0 0 -6,6 5.9999999,5.9999999 0 0 0 6,6 5.9999999,5.9999999 0 0 0 6,-6 5.9999999,5.9999999 0 0 0 -6,-6 z M 15,37 a 5.9999999,5.9999999 0 0 0 -6,6 5.9999999,5.9999999 0 0 0 6,6 5.9999999,5.9999999 0 0 0 6,-6 5.9999999,5.9999999 0 0 0 -6,-6 z m 17,0 a 5.9999999,5.9999999 0 0 0 -6,6 5.9999999,5.9999999 0 0 0 6,6 5.9999999,5.9999999 0 0 0 6,-6 5.9999999,5.9999999 0 0 0 -6,-6 z m 17,0 a 5.9999999,5.9999999 0 0 0 -6,6 5.9999999,5.9999999 0 0 0 6,6 5.9999999,5.9999999 0 0 0 6,-6 5.9999999,5.9999999 0 0 0 -6,-6 z"/>
 <path style="fill:#ffffff" d="M 32 15 A 5.9999999 5.9999999 0 0 0 26 21 A 5.9999999 5.9999999 0 0 0 32 27 A 5.9999999 5.9999999 0 0 0 38 21 A 5.9999999 5.9999999 0 0 0 32 15 z M 15 36 A 5.9999999 5.9999999 0 0 0 9 42 A 5.9999999 5.9999999 0 0 0 15 48 A 5.9999999 5.9999999 0 0 0 21 42 A 5.9999999 5.9999999 0 0 0 15 36 z M 32 36 A 5.9999999 5.9999999 0 0 0 26 42 A 5.9999999 5.9999999 0 0 0 32 48 A 5.9999999 5.9999999 0 0 0 38 42 A 5.9999999 5.9999999 0 0 0 32 36 z M 49 36 A 5.9999999 5.9999999 0 0 0 43 42 A 5.9999999 5.9999999 0 0 0 49 48 A 5.9999999 5.9999999 0 0 0 55 42 A 5.9999999 5.9999999 0 0 0 49 36 z"/>
 <path style="opacity:0.1;fill:#ffffff" d="M 6.75 7 C 5.2265 7 4 8.2384548 4 9.7773438 L 4 10.777344 C 4 9.2384548 5.2265 8 6.75 8 L 12.25 8 C 13.7735 8 15 9.2384548 15 10.777344 L 15 9.7773438 C 15 8.2384548 13.7735 7 12.25 7 L 6.75 7 z"/>
 <path style="opacity:0.1;fill:#ffffff" d="M 51.75 7 C 50.2265 7 49 8.2384548 49 9.7773438 L 49 10.777344 C 49 9.2384548 50.2265 8 51.75 8 L 57.25 8 C 58.7735 8 60 9.2384548 60 10.777344 L 60 9.7773438 C 60 8.2384548 58.7735 7 57.25 7 L 51.75 7 z"/>
</svg>
